X: 081142
T: Hare in the Corn
T: Cat in the Corner
T: Quarry Cross Slide #2
S: "Johnny O'Leary of Sliabh Luachra" (#103)
Z: B.Black
L: 1/8
M: 12/8
Q: 350
R: slide
K: G
A|B2B A/B/AG BdB AGA|BeB d/e/dB A2A AGA|
B2G A/B/AG BdB A2G|1 B2e d2B G3 G2 :|2\
B2e d2B G3 GB||
d|e3 edB e2f g3|BAB d/e/dB A2B ABd|
efe edB e2f g3|1 BAB d2B G3 G2 :|2\
B2e d2B G z2 G3||
